X:1
T:The Lakes of Col Flynn
M:3/4
L:1/4
K:C
 F/2G/2| A G A| F D G/2G/2| F D E| D2 G| A d d/2e/2| f d d| A F G|\
 A2 A| A d e| f d d| A F G| A2 F/2G/2| A A A| F DD/2-E/2| F D E| D2||\
